input metago;

beginfig(1);

  set_board_color(0.2,0.4,0.6);
  set_board_size 18;
  init_board;
  
  put_b(B18);
  put_b(B16);
  put_b(A17);
  put_w(B17);
  put_b(C17);
  
  display_board;
  
endfig;

end